docs/assets/images/svg/icon-vk.svg

<svg width="28" height="28" viewBox="0 0 28 28" fill="inherit" xmlns="http://www.w3.org/2000/svg">
<path d="M25.7861 19.4871C25.7216 19.3767 25.3225 18.4902 23.4024 16.6683C21.3923 14.7604 21.6623 15.0702 24.0835 11.7713C25.5581 9.76224 26.1476 8.53531 25.9631 8.01081C25.7876 7.51084 24.703 7.64273 24.703 7.64273L21.0967 7.6642C21.0967 7.6642 20.8297 7.62739 20.6302 7.74855C20.4367 7.86818 20.3122 8.14423 20.3122 8.14423C20.3122 8.14423 19.7406 9.69936 18.9786 11.0214C17.372 13.8111 16.7284 13.9583 16.4659 13.785C15.8554 13.3817 16.0084 12.1624 16.0084 11.2974C16.0084 8.59359 16.4089 7.46636 15.2268 7.17497C14.8338 7.07835 14.5458 7.01393 13.5422 7.0032C12.2551 6.98939 11.1645 7.0078 10.548 7.31606C10.1369 7.52157 9.82041 7.98013 10.0139 8.00621C10.2524 8.03841 10.7925 8.15497 11.079 8.55372C11.4495 9.06749 11.436 10.2239 11.436 10.2239C11.436 10.2239 11.649 13.4062 10.9395 13.8019C10.452 14.0733 9.78441 13.5197 8.3518 10.9876C7.61825 9.69169 7.06321 8.25772 7.06321 8.25772C7.06321 8.25772 6.9567 7.99087 6.76618 7.84824C6.53517 7.67494 6.21114 7.61973 6.21114 7.61973L2.78189 7.6412C2.78189 7.6412 2.26735 7.65653 2.07834 7.88505C1.91033 8.08902 2.06484 8.50924 2.06484 8.50924C2.06484 8.50924 4.75004 14.9306 7.78926 18.1682C10.578 21.1358 13.7432 20.941 13.7432 20.941H15.1773C15.1773 20.941 15.6108 20.8919 15.8314 20.6481C16.0354 20.4242 16.0279 20.004 16.0279 20.004C16.0279 20.004 15.9994 18.0363 16.8934 17.7464C17.774 17.4612 18.9051 19.6482 20.1037 20.4901C21.0097 21.1266 21.6983 20.987 21.6983 20.987L24.904 20.941C24.904 20.941 26.5811 20.8352 25.7861 19.4871Z"/>
</svg>

<svg width="28" height="28" fill="inherit" xmlns="http://www.w3.org/2000/svg"><path d="M25.786 19.487c-.064-.11-.463-.997-2.384-2.819-2.01-1.908-1.74-1.598.681-4.897 1.475-2.009 2.065-3.236 1.88-3.76-.175-.5-1.26-.368-1.26-.368l-3.606.021s-.267-.037-.467.085c-.193.12-.318.395-.318.395s-.571 1.555-1.333 2.877c-1.607 2.79-2.25 2.937-2.513 2.764-.61-.403-.458-1.623-.458-2.488 0-2.703.4-3.83-.781-4.122-.393-.097-.681-.161-1.685-.172-1.287-.014-2.377.005-2.994.313-.411.206-.728.664-.534.69.238.032.779.149 1.065.548.37.513.357 1.67.357 1.67s.213 3.182-.496 3.578c-.488.271-1.156-.282-2.588-2.814-.734-1.296-1.289-2.73-1.289-2.73s-.106-.267-.297-.41a1.47 1.47 0 00-.555-.228l-3.43.021s-.514.016-.703.244c-.168.204-.013.624-.013.624s2.685 6.422 5.724 9.66c2.789 2.967 5.954 2.772 5.954 2.772h1.434s.434-.05.654-.293c.204-.224.197-.644.197-.644s-.029-1.968.865-2.258c.881-.285 2.012 1.902 3.21 2.744.907.637 1.595.497 1.595.497l3.206-.046s1.677-.106.882-1.454z"/></svg>
